svg/github.svg

<?xml version="1.0" encoding="UTF-8" standalone="no"?>
<!-- Uploaded to: SVG Repo, www.svgrepo.com, Generator: SVG Repo Mixer Tools -->

<svg
   width="500"
   height="500"
   viewBox="0 0 15 15"
   fill="none"
   version="1.1"
   id="svg1219"
   sodipodi:docname="github.svg"
   inkscape:version="1.2.2 (732a01da63, 2022-12-09)"
   xmlns:inkscape="http://www.inkscape.org/namespaces/inkscape"
   xmlns:sodipodi="http://sodipodi.sourceforge.net/DTD/sodipodi-0.dtd"
   xmlns="http://www.w3.org/2000/svg"
   xmlns:svg="http://www.w3.org/2000/svg">
  <defs
     id="defs1223" />
  <sodipodi:namedview
     id="namedview1221"
     pagecolor="#505050"
     bordercolor="#eeeeee"
     borderopacity="1"
     inkscape:showpageshadow="0"
     inkscape:pageopacity="0"
     inkscape:pagecheckerboard="0"
     inkscape:deskcolor="#505050"
     showgrid="false"
     inkscape:current-layer="svg1219" />
  <g
     id="g9"
     transform="matrix(0.75000044,0,0,0.74999991,-1.5000053,-1.4999989)">
    <path
       d="m 21,12 c 0,4.9706 -4.0294,9 -9,9 -4.97056,0 -9,-4.0294 -9,-9 0,-4.97056 4.02944,-9 9,-9 4.9706,0 9,4.02944 9,9 z"
       stroke="#323232"
       stroke-width="2"
       id="path1215"
       style="stroke:#eeeeee;stroke-opacity:1" />
    <path
       d="m 13.717,8.88177 c -1.1289,-0.31223 -2.3051,-0.31223 -3.434,0 -0.0641,0.01772 -0.128,0.03645 -0.1918,0.05618 l -0.0018,5.8e-4 c -0.033,0.01036 -0.0689,0.00382 -0.09616,-0.0175 v 0 C 9.95517,8.8914 9.91766,8.8627 9.8807,8.83491 8.69311,7.94193 8.07278,7.98181 7.91927,8.01161 v 0 C 7.8946,8.0164 7.87585,8.03481 7.86732,8.05844 7.86516,8.06441 7.86303,8.07038 7.8609,8.07636 7.61639,8.76505 7.57904,9.52813 7.75277,10.2425 c 0.01012,0.0416 0.02094,0.083 0.03248,0.1242 7.6e-4,0.0027 0.00152,0.0054 0.00228,0.0081 0.01001,0.0354 0.00267,0.0735 -0.01973,0.1028 v 0 c -0.01706,0.0222 -0.03386,0.0447 -0.05039,0.0674 -0.47262,0.6489 -0.72834,1.4763 -0.71705,2.3297 0,3.4652 1.8036,4.2611 3.53464,4.4964 l 0.0358,0.0047 c 0.9639,0.1441 1.8879,0.1352 2.8487,-0.0279 l 0.0243,-0.0029 c 1.7394,-0.2111 3.5558,-0.9863 3.5558,-4.4703 0.0113,-0.8534 -0.2444,-1.6808 -0.717,-2.3297 -0.0152,-0.0208 -0.0306,-0.0415 -0.0462,-0.062 -4e-4,-5e-4 -8e-4,-0.001 -0.0012,-0.0015 -0.0242,-0.0317 -0.0322,-0.073 -0.0214,-0.1114 v 0 c 0.0119,-0.0424 0.023,-0.0849 0.0333,-0.1276 C 16.421,9.52611 16.3815,8.76076 16.1329,8.07176 16.1313,8.06753 16.1298,8.06331 16.1283,8.05909 16.1195,8.03503 16.1004,8.01628 16.0752,8.01142 v 0 C 15.921,7.98164 15.3041,7.94381 14.1193,8.83491 14.0848,8.86084 14.0499,8.88755 14.0144,8.91508 v 0 C 13.9824,8.94011 13.9402,8.94762 13.9013,8.93566 13.9005,8.9354 13.8997,8.93514 13.8988,8.93488 13.8384,8.91627 13.7778,8.89857 13.717,8.88177 Z"
       stroke="#323232"
       stroke-width="2"
       stroke-linecap="round"
       stroke-linejoin="round"
       id="path1217"
       style="stroke:#eeeeee;stroke-opacity:1" />
  </g>
</svg>

<?xml version="1.0" encoding="UTF-8" standalone="no"?>
<!-- Uploaded to: SVG Repo, www.svgrepo.com, Generator: SVG Repo Mixer Tools -->

<svg
   width="800px"
   height="800px"
   viewBox="0 0 24 24"
   fill="none"
   version="1.1"
   id="svg1219"
   sodipodi:docname="github.svg"
   inkscape:version="1.2.2 (732a01da63, 2022-12-09)"
   xmlns:inkscape="http://www.inkscape.org/namespaces/inkscape"
   xmlns:sodipodi="http://sodipodi.sourceforge.net/DTD/sodipodi-0.dtd"
   xmlns="http://www.w3.org/2000/svg"
   xmlns:svg="http://www.w3.org/2000/svg">
  <defs
     id="defs1223" />
  <sodipodi:namedview
     id="namedview1221"
     pagecolor="#505050"
     bordercolor="#eeeeee"
     borderopacity="1"
     inkscape:showpageshadow="0"
     inkscape:pageopacity="0"
     inkscape:pagecheckerboard="0"
     inkscape:deskcolor="#505050"
     showgrid="false"
     inkscape:current-layer="svg1219" />
  <path
     d="M21 12C21 16.9706 16.9706 21 12 21C7.02944 21 3 16.9706 3 12C3 7.02944 7.02944 3 12 3C16.9706 3 21 7.02944 21 12Z"
     stroke="#323232"
     stroke-width="2"
     id="path1215"
     style="stroke:#eeeeee;stroke-opacity:1" />
  <path
     d="M13.717 8.88177C12.5881 8.56954 11.4119 8.56954 10.283 8.88177C10.2189 8.89949 10.155 8.91822 10.0912 8.93795L10.0894 8.93853C10.0564 8.94889 10.0205 8.94235 9.99324 8.92103V8.92103C9.95517 8.8914 9.91766 8.8627 9.8807 8.83491C8.69311 7.94193 8.07278 7.98181 7.91927 8.01161V8.01161C7.8946 8.0164 7.87585 8.03481 7.86732 8.05844C7.86516 8.06441 7.86303 8.07038 7.8609 8.07636C7.61639 8.76505 7.57904 9.52813 7.75277 10.2425C7.76289 10.2841 7.77371 10.3255 7.78525 10.3667C7.78601 10.3694 7.78677 10.3721 7.78753 10.3748C7.79754 10.4102 7.7902 10.4483 7.7678 10.4776V10.4776C7.75074 10.4998 7.73394 10.5223 7.71741 10.545C7.24479 11.1939 6.98907 12.0213 7.00036 12.8747C7.00036 16.3399 8.80396 17.1358 10.535 17.3711L10.5708 17.3758C11.5347 17.5199 12.4587 17.511 13.4195 17.3479L13.4438 17.345C15.1832 17.1339 16.9996 16.3587 16.9996 12.8747C17.0109 12.0213 16.7552 11.1939 16.2826 10.545C16.2674 10.5242 16.252 10.5035 16.2364 10.483C16.236 10.4825 16.2356 10.482 16.2352 10.4815C16.211 10.4498 16.203 10.4085 16.2138 10.3701V10.3701C16.2257 10.3277 16.2368 10.2852 16.2471 10.2425C16.421 9.52611 16.3815 8.76076 16.1329 8.07176C16.1313 8.06753 16.1298 8.06331 16.1283 8.05909C16.1195 8.03503 16.1004 8.01628 16.0752 8.01142V8.01142C15.921 7.98164 15.3041 7.94381 14.1193 8.83491C14.0848 8.86084 14.0499 8.88755 14.0144 8.91508V8.91508C13.9824 8.94011 13.9402 8.94762 13.9013 8.93566C13.9005 8.9354 13.8997 8.93514 13.8988 8.93488C13.8384 8.91627 13.7778 8.89857 13.717 8.88177Z"
     stroke="#323232"
     stroke-width="2"
     stroke-linecap="round"
     stroke-linejoin="round"
     id="path1217"
     style="stroke:#eeeeee;stroke-opacity:1" />
</svg>
